app/assets/svgs/instagram.svg

<?xml version="1.0" encoding="UTF-8" standalone="no"?>
<svg width="75px" height="76px" viewBox="0 0 75 76" version="1.1" xmlns="http://www.w3.org/2000/svg" xmlns:xlink="http://www.w3.org/1999/xlink">
    <!-- Generator: Sketch 3.7.2 (28276) - http://www.bohemiancoding.com/sketch -->
    <title>instagram-glyph-1 2</title>
    <desc>Created with Sketch.</desc>
    <defs></defs>
    <g id="Page-1" stroke="none" stroke-width="1" fill="none" fill-rule="evenodd">
        <g id="instagram-glyph-1" fill="#FFFFFF">
            <path d="M25.0020194,37.5 C25.0020194,30.5967286 30.5967286,24.9989903 37.5,24.9989903 C44.4032714,24.9989903 50.0010097,30.5967286 50.0010097,37.5 C50.0010097,44.4032714 44.4032714,50.0010097 37.5,50.0010097 C30.5967286,50.0010097 25.0020194,44.4032714 25.0020194,37.5 M18.2441438,37.5 C18.2441438,48.1350969 26.8649031,56.7558562 37.5,56.7558562 C48.1350969,56.7558562 56.7558562,48.1350969 56.7558562,37.5 C56.7558562,26.8649031 48.1350969,18.2441438 37.5,18.2441438 C26.8649031,18.2441438 18.2441438,26.8649031 18.2441438,37.5 M53.0179725,17.4808158 C53.0179725,19.9646607 55.0323102,21.9820275 57.5191842,21.9820275 C60.0030291,21.9820275 62.0203958,19.9646607 62.0203958,17.4808158 C62.0203958,14.9969709 60.0060582,12.9826333 57.5191842,12.9826333 C55.0323102,12.9826333 53.0179725,14.9969709 53.0179725,17.4808158 M22.348546,68.0240307 C18.6924475,67.8574313 16.7053716,67.2485864 15.3846931,66.733643 C13.6338853,66.0521002 12.3859047,65.2403069 11.0712843,63.9287157 C9.75969305,62.6171244 8.94487076,61.3691438 8.26635703,59.618336 C7.75141357,58.2976575 7.14256866,56.3105816 6.97596931,52.654483 C6.79422456,48.7015347 6.75787561,47.5141357 6.75787561,37.5 C6.75787561,27.4858643 6.79725363,26.3014943 6.97596931,22.345517 C7.14256866,18.6894184 7.75444265,16.7053716 8.26635703,15.381664 C8.94789984,13.6308562 9.75969305,12.3828756 11.0712843,11.0682553 C12.3828756,9.75666397 13.6308562,8.94184168 15.3846931,8.26332795 C16.7053716,7.74838449 18.6924475,7.13953958 22.348546,6.97294023 C26.3014943,6.79119548 27.4888934,6.75484653 37.5,6.75484653 C47.5141357,6.75484653 48.6985057,6.79422456 52.654483,6.97294023 C56.3105816,7.13953958 58.2946284,7.75141357 59.618336,8.26332795 C61.3691438,8.94184168 62.6171244,9.75666397 63.9317447,11.0682553 C65.243336,12.3798465 66.0551292,13.6308562 66.7366721,15.381664 C67.2516155,16.7023425 67.8604604,18.6894184 68.0270598,22.345517 C68.2088045,26.3014943 68.2451535,27.4858643 68.2451535,37.5 C68.2451535,47.5111066 68.2088045,48.6985057 68.0270598,52.654483 C67.8604604,56.3105816 67.2485864,58.2976575 66.7366721,59.618336 C66.0551292,61.3691438 65.243336,62.6171244 63.9317447,63.9287157 C62.6201535,65.2403069 61.3691438,66.0521002 59.618336,66.733643 C58.2976575,67.2485864 56.3105816,67.8574313 52.654483,68.0240307 C48.7015347,68.2057754 47.5141357,68.2421244 37.5,68.2421244 C27.4888934,68.2421244 26.3014943,68.2057754 22.348546,68.0240307 M22.03958,0.227180937 C18.0472536,0.408925687 15.3210824,1.04200323 12.9371971,1.96890145 C10.4715267,2.92609047 8.38146204,4.21042003 6.29442649,6.29442649 C4.21042003,8.37843296 2.92609047,10.4684976 1.96890145,12.9371971 C1.04200323,15.3210824 0.408925687,18.0472536 0.227180937,22.03958 C0.0424071082,26.0379645 0,27.3162359 0,37.5 C0,47.6837641 0.0424071082,48.9620355 0.227180937,52.96042 C0.408925687,56.9527464 1.04200323,59.6789176 1.96890145,62.0628029 C2.92609047,64.5284733 4.20739095,66.621567 6.29442649,68.7055735 C8.37843296,70.78958 10.4684976,72.0708805 12.9371971,73.0310985 C15.3241115,73.9579968 18.0472536,74.5910743 22.03958,74.7728191 C26.0409935,74.9545638 27.3162359,75 37.5,75 C47.6867932,75 48.9620355,74.9575929 52.96042,74.7728191 C56.9527464,74.5910743 59.6789176,73.9579968 62.0628029,73.0310985 C64.5284733,72.0708805 66.618538,70.78958 68.7055735,68.7055735 C70.78958,66.621567 72.0708805,64.5284733 73.0310985,62.0628029 C73.9579968,59.6789176 74.5941034,56.9527464 74.7728191,52.96042 C74.9545638,48.9590065 74.9969709,47.6837641 74.9969709,37.5 C74.9969709,27.3162359 74.9545638,26.0379645 74.7728191,22.03958 C74.5910743,18.0472536 73.9579968,15.3210824 73.0310985,12.9371971 C72.0708805,10.4715267 70.78958,8.38146204 68.7055735,6.29442649 C66.621567,4.21042003 64.5284733,2.92609047 62.065832,1.96890145 C59.6789176,1.04200323 56.9527464,0.405896607 52.9634491,0.227180937 C48.9650646,0.0454361874 47.6867932,0 37.5030291,0 C27.3162359,0 26.0409935,0.0424071082 22.03958,0.227180937" id="Shape"></path>
        </g>
    </g>
</svg>

<svg width="75" height="76" viewBox="0 0 75 76" xmlns="http://www.w3.org/2000/svg"><title>instagram-glyph-1 2</title><path d="M25.002 37.5c0-6.903 5.595-12.501 12.498-12.501S50.001 30.597 50.001 37.5 44.403 50.001 37.5 50.001 25.002 44.403 25.002 37.5m-6.758 0c0 10.635 8.62 19.256 19.256 19.256 10.635 0 19.256-8.62 19.256-19.256 0-10.635-8.62-19.256-19.256-19.256-10.635 0-19.256 8.62-19.256 19.256m34.774-20.02a4.502 4.502 0 0 0 9.002 0 4.5 4.5 0 0 0-4.5-4.497 4.5 4.5 0 0 0-4.502 4.498m-30.67 50.543c-3.656-.167-5.643-.775-6.963-1.29-1.751-.682-3-1.494-4.314-2.805-1.311-1.312-2.126-2.56-2.805-4.31-.515-1.321-1.123-3.308-1.29-6.965-.182-3.952-.218-5.14-.218-15.154s.04-11.199.218-15.154c.167-3.657.778-5.64 1.29-6.964.682-1.751 1.494-3 2.805-4.314 1.312-1.311 2.56-2.126 4.314-2.805 1.32-.515 3.307-1.123 6.964-1.29 3.952-.182 5.14-.218 15.151-.218 10.014 0 11.199.04 15.154.218 3.657.167 5.64.778 6.964 1.29 1.751.679 3 1.494 4.314 2.805 1.311 1.312 2.123 2.563 2.805 4.314.515 1.32 1.123 3.307 1.29 6.964.182 3.955.218 5.14.218 15.154 0 10.011-.036 11.199-.218 15.154-.167 3.657-.778 5.644-1.29 6.964-.682 1.751-1.494 3-2.805 4.31-1.312 1.312-2.563 2.124-4.314 2.806-1.32.515-3.307 1.123-6.964 1.29-3.952.182-5.14.218-15.154.218-10.011 0-11.199-.036-15.151-.218M22.039.227c-3.992.182-6.718.815-9.102 1.742-2.465.957-4.556 2.241-6.643 4.325-2.084 2.084-3.368 4.174-4.325 6.643-.927 2.384-1.56 5.11-1.742 9.103C.042 26.038 0 27.316 0 37.5c0 10.184.042 11.462.227 15.46.182 3.993.815 6.719 1.742 9.103.957 2.465 2.238 4.559 4.325 6.643 2.084 2.084 4.174 3.365 6.643 4.325 2.387.927 5.11 1.56 9.103 1.742 4.001.182 5.276.227 15.46.227 10.187 0 11.462-.042 15.46-.227 3.993-.182 6.719-.815 9.103-1.742 2.465-.96 4.556-2.241 6.643-4.325 2.084-2.084 3.365-4.178 4.325-6.643.927-2.384 1.563-5.11 1.742-9.103.182-4.001.224-5.276.224-15.46 0-10.184-.042-11.462-.224-15.46-.182-3.993-.815-6.719-1.742-9.103-.96-2.465-2.241-4.556-4.325-6.643-2.084-2.084-4.178-3.368-6.64-4.325-2.387-.927-5.113-1.563-9.103-1.742C48.965.045 47.687 0 37.503 0 27.316 0 26.041.042 22.04.227" fill="#FFF" fill-rule="evenodd"/></svg>
